svgs/sharp-regular/transporter-4.svg

<svg xmlns="http://www.w3.org/2000/svg" viewBox="0 0 512 512"><!--! Font Awesome Pro 6.6.0 by @fontawesome - https://fontawesome.com License - https://fontawesome.com/license (Commercial License) Copyright 2024 Fonticons, Inc. --><path d="M224 0l64 0 16 0 0 32-16 0-64 0-16 0 0-32 16 0zm0 64l64 0 16 0 0 32-16 0-64 0-16 0 0-32 16 0zm-48 64l160 0 16 0 0 32-16 0-160 0-16 0 0-32 16 0zm-32 64l224 0 16 0 0 32-16 0-224 0-16 0 0-32 16 0zm-32 64l288 0 16 0 0 32-16 0-288 0-16 0 0-32 16 0zm64 64l160 0 16 0 0 32-16 0-160 0-16 0 0-32 16 0zm0 64l160 0 16 0 0 32-16 0-160 0-16 0 0-32 16 0zM464 128l16 32 32 16-32 16-16 32-16-32-32-16 32-16 16-32zM48 352l16 32 32 16L64 416 48 448 32 416 0 400l32-16 16-32zM96 464l24 0 272 0 24 0 0 48-24 0-272 0-24 0 0-48z"/></svg>

<svg xmlns="http://www.w3.org/2000/svg" viewBox="0 0 512 512"><!--! Font Awesome Pro 6.5.2 by @fontawesome - https://fontawesome.com License - https://fontawesome.com/license (Commercial License) Copyright 2024 Fonticons, Inc. --><path d="M224 0h64 16V32H288 224 208V0h16zm0 64h64 16V96H288 224 208V64h16zm-48 64H336h16v32H336 176 160V128h16zm-32 64H368h16v32H368 144 128V192h16zm-32 64H400h16v32H400 112 96V256h16zm64 64H336h16v32H336 176 160V320h16zm0 64H336h16v32H336 176 160V384h16zM464 128l16 32 32 16-32 16-16 32-16-32-32-16 32-16 16-32zM48 352l16 32 32 16L64 416 48 448 32 416 0 400l32-16 16-32zM96 464h24H392h24v48H392 120 96V464z"/></svg>
